X:99
T:La Foule (The Crowd)
C:Angel Cabral
N:Tabledited by Mike Stangeland
L:1/8
Q:1/4=176
M:3/4
K:G
z6 | "Am"ee zf f2 | ee zf f2 | "Em"ee zf f2 | ee zf f2 | "B7"^dd zf f2 | ^dd zf f2 | 
"Em"e6 | e2 z2 BB | "Em"e3e ef | "C"g3f e^d | "Am"e2 c4 | z2 z2 ef | "D7"a3g gf | 
a3d dd | "G"d6 | z2 z2 BB | "B7"^d3d de | f3f e^d | "Em"e2 B4 | z2 z2 BB | "C"c3c cc | 
e3e fe | "B"^d6 | z2 z2 BB | "Em"e3e ef | "C"g3f e^d | "Am"e2 c4 | z2 z2 ef | 
"D7"a3g gf | a3d dd | "G"d6 | z2 z2 BB | "B7"^d3d de | f3e e^d | "Em"e2 e4 | z2 z2 ee | 
"C"c3c cc | "B7"B3B ^dd | "Em"e6 | ed ed ^cd | "D7"f3e ed | f3e ed | "G"g3e ed | 
g3e ed | "D7"f3e ed | f3e ed | B6 | zB cB ^AB | "B7"^d3d de | f3f e^d | "Em"e2 e4 | 
"Em"zB ee ee | "C9"ee ee ee | "F#7"e2 g3g | "B"f6 | fd ed ^cd | "D7"f3e ed | f3e ed | 
"G"g3e ed | g3e ed | "D7"f3e ed | f3e ed | "G"B6 | zB cB ^AB | "B7"^d3d de | f3f e^d | 
"Em"e2 e4 | zB ee ee | "C"ee ee ee | "B7"^d2 g3f | "Em"e6 | z2 z2 BB | e3e ef | 
"C"g3f e^d | "Am"e2 c4 | z2 z2 ef | "D7"a3g gf | a3d dd | "G"d6 | z2 z2 BB | "B7"^d3d de | 
f3f e^d | "Em"e2 e4 | z2 z2 ee | "C7"c3c cc | "B7"B3B B^d | e6 | ed ed ^cd | "Am"ee zf f2 | 
ee zf f2 | "Em"ee zf f2 | ee zf f2 | "B7"^dd zf f2 | ^dd zf f2 | (3"Em"efg (3a^ab (3c'd'^d' | 
e'2 z2 z2 | z6 | 


